img/hint1.svg

<svg width="11" height="11" viewBox="0 0 11 11" fill="none" xmlns="http://www.w3.org/2000/svg">
<g clip-path="url(#clip0)">
<path d="M6.33044 4.67024C6.04435 4.38416 6.04435 3.92054 6.33044 3.63446L8.41621 1.54869L7.35743 1.4628C7.17719 1.44758 7.01724 1.36913 6.89855 1.25043C6.75178 1.10367 6.66792 0.89604 6.68652 0.673192C6.72034 0.270106 7.07371 -0.0301802 7.47579 0.00262126L10.1131 0.217353C10.4712 0.247111 10.7542 0.530827 10.7833 0.887924L10.9981 3.52456C11.0312 3.9273 10.7306 4.28068 10.3278 4.31382C9.92542 4.34662 9.57204 4.04634 9.53856 3.64325L9.45267 2.58515L7.3669 4.67058C7.08014 4.957 6.61618 4.957 6.33044 4.67024ZM3.63429 6.32993L1.5492 8.41536L1.46263 7.35692C1.42949 6.95384 1.07611 6.65355 0.673362 6.68669C0.269938 6.72017 -0.0300101 7.07354 0.00245329 7.47562L0.217185 10.1133C0.246267 10.4704 0.530659 10.7541 0.888094 10.7828L3.52473 10.9976C3.92747 11.031 4.28085 10.7301 4.31399 10.3277C4.33259 10.1048 4.24873 9.89718 4.10196 9.75008C3.98293 9.63071 3.824 9.55327 3.64376 9.53805L2.58498 9.45148L4.67007 7.36605C4.95717 7.07929 4.95717 6.61567 4.67075 6.33027C4.38399 6.04351 3.92037 6.04351 3.63429 6.32993ZM10.3268 6.68601C10.1036 6.66741 9.89633 6.75128 9.74957 6.89804C9.6302 7.01741 9.55209 7.17634 9.53755 7.35658L9.45098 8.41502L7.36588 6.32959C7.07879 6.04351 6.61517 6.04351 6.33044 6.32959C6.04334 6.61567 6.04334 7.07963 6.33044 7.36538L8.41553 9.45081L7.35641 9.5367C6.954 9.56984 6.65406 9.92355 6.68652 10.3263C6.72 10.7287 7.07338 11.0297 7.4768 10.9965L10.1128 10.7815C10.4702 10.7524 10.7539 10.4687 10.7833 10.1116L10.9974 7.47426C11.0305 7.07253 10.7302 6.71881 10.3268 6.68601ZM2.58498 1.54869L3.64376 1.4628C4.04651 1.42966 4.34645 1.07628 4.31399 0.672854C4.28051 0.269768 3.92714 -0.0301802 3.52439 0.0022831L0.887079 0.217353C0.530321 0.246435 0.245928 0.530151 0.217185 0.887924L0.00245329 3.52456C-0.0303482 3.92764 0.2696 4.28068 0.673024 4.31382C0.895195 4.33208 1.10316 4.24856 1.25026 4.10146C1.36963 3.98276 1.44775 3.82383 1.46229 3.64325L1.54886 2.58447L3.63463 4.6699C3.92037 4.95632 4.38467 4.95632 4.67007 4.6699C4.95683 4.38382 4.95683 3.9202 4.67075 3.63412L2.58498 1.54869Z" fill="white"/>
</g>
<defs>
<clipPath id="clip0">
<rect width="11" height="11" fill="white"/>
</clipPath>
</defs>
</svg>

<svg width="11" height="11" fill="none" xmlns="http://www.w3.org/2000/svg"><g clip-path="url(#clip0)"><path d="M6.33 4.67a.732.732 0 010-1.036L8.416 1.55l-1.059-.086a.734.734 0 01-.67-.79.734.734 0 01.789-.67l2.637.214c.358.03.641.314.67.67l.215 2.638a.733.733 0 01-1.46.118l-.085-1.058-2.086 2.086a.732.732 0 01-1.037 0zM3.634 6.33L1.55 8.415l-.086-1.058a.732.732 0 00-1.46.119l.214 2.637c.03.357.314.641.671.67l2.637.215a.732.732 0 00.119-1.46l-1.059-.087L4.67 7.366A.732.732 0 103.634 6.33zm6.693.356a.728.728 0 00-.79.67l-.086 1.059L7.366 6.33A.732.732 0 106.33 7.365l2.086 2.086-1.06.086a.733.733 0 00.12 1.46l2.637-.216a.733.733 0 00.67-.67l.214-2.637a.732.732 0 00-.67-.788zM2.585 1.549l1.059-.086a.733.733 0 00-.12-1.46L.887.216a.732.732 0 00-.67.67l-.215 2.64a.732.732 0 001.46.118l.087-1.059L3.635 4.67A.731.731 0 104.67 3.634L2.585 1.55z" fill="#fff"/></g><defs><clipPath id="clip0"><path fill="#fff" d="M0 0h11v11H0z"/></clipPath></defs></svg>
